X:1
T:[ID 4-45r]
T:[ID 4-45r]
T:Bezeichnung standardisiert: Tantz Courant In dieser Quelle auch als: Tantz
T:Urheber unbekannt Datum in der hier transkribierten schriftlichen Quelle: 1796
C:Urheber unbekannt
C:Datum in der hier transkribierten schriftlichen Quelle: 1796
L:1/8
M:2/4
K:D
V:1 treble 
V:1
 a | ff d2 | gg e2 | cABc | dc da | ff d2 | gg e2 | cABc | d3 :: A | ABcd | e3 f | gg ff | e3 a | %14
 ff d2 | gg e2 | cABc | d3 :| %18

